src/food-drink/food-prepared/1FAD3.svg

<svg id="emoji" viewBox="0 0 72 72" xmlns="http://www.w3.org/2000/svg">
  <g id="grid">
    <path fill="#b3b3b3" d="M68,4V68H4V4H68m4-4H0V72H72V0Z"/>
    <path fill="none" stroke="#00a5ff" stroke-miterlimit="10" stroke-width="0.1" d="M12.923,10.9583H59.0769A1.9231,1.9231,0,0,1,61,12.8814V59.0352a1.9231,1.9231,0,0,1-1.9231,1.9231H12.9231A1.9231,1.9231,0,0,1,11,59.0352V12.8813A1.923,1.923,0,0,1,12.923,10.9583Z"/>
    <rect x="16" y="4" rx="2.2537" width="40" height="64" fill="none" stroke="#00a5ff" stroke-miterlimit="10" stroke-width="0.1"/>
    <rect x="16" y="4" rx="2.2537" width="40" height="64" transform="rotate(90 36 36)" fill="none" stroke="#00a5ff" stroke-miterlimit="10" stroke-width="0.1"/>
    <circle cx="36" cy="36" r="29" fill="none" stroke="#00a5ff" stroke-miterlimit="10" stroke-width="0.1"/>
  </g>
  <g id="color">
    <circle cx="36" cy="36" r="23" fill="#fcea2b"/>
    <path fill="#f1b31c" d="M54.6948,22.61a23,23,0,0,1-40.6742,20.182A23.0012,23.0012,0,1,0,54.6948,22.61Z"/>
  </g>
  <g id="line">
    <circle cx="36" cy="36" r="23" fill="none" stroke="#000" stroke-miterlimit="10" stroke-width="2"/>
    <line x1="46.2638" x2="25.0506" y1="25.8938" y2="47.107" fill="none" stroke="#000" stroke-linecap="round" stroke-miterlimit="10" stroke-width="2"/>
    <line x1="48.0355" x2="33.8933" y1="34.7365" y2="48.8786" fill="none" stroke="#000" stroke-linecap="round" stroke-miterlimit="10" stroke-width="2"/>
    <line x1="27.1018" x2="23.5662" y1="35.016" y2="38.5515" fill="none" stroke="#000" stroke-linecap="round" stroke-miterlimit="10" stroke-width="2"/>
    <line x1="37.7084" x2="30.6373" y1="24.4094" y2="31.4804" fill="none" stroke="#000" stroke-linecap="round" stroke-miterlimit="10" stroke-width="2"/>
    <line x1="29.1529" x2="22.0818" y1="22.925" y2="29.996" fill="none" stroke="#000" stroke-linecap="round" stroke-miterlimit="10" stroke-width="2"/>
  </g>
</svg>

<svg viewBox="0 0 72 72" xmlns="http://www.w3.org/2000/svg"><path fill="#b3b3b3" d="M68 4v64H4V4h64m4-4H0v72h72V0z"/><path fill="none" stroke="#00a5ff" stroke-miterlimit="10" stroke-width=".1" d="M12.923 10.958h46.154A1.923 1.923 0 0161 12.881v46.154a1.923 1.923 0 01-1.923 1.923H12.923A1.923 1.923 0 0111 59.035V12.881a1.923 1.923 0 011.923-1.923z"/><rect x="16" y="4" rx="2.254" width="40" height="64" fill="none" stroke="#00a5ff" stroke-miterlimit="10" stroke-width=".1"/><rect x="16" y="4" rx="2.254" width="40" height="64" transform="rotate(90 36 36)" fill="none" stroke="#00a5ff" stroke-miterlimit="10" stroke-width=".1"/><circle cx="36" cy="36" r="29" fill="none" stroke="#00a5ff" stroke-miterlimit="10" stroke-width=".1"/><g stroke-linecap="round" stroke-miterlimit="10" stroke-width="6" stroke="#fff" fill="none" stroke-linejoin="round"><circle cx="36" cy="36" r="23"/><path d="M46.264 25.894L25.051 47.107m22.984-12.371L33.893 48.879m-6.791-13.863l-3.536 3.535m14.142-14.142l-7.071 7.071m-1.484-8.555l-7.071 7.071"/></g><circle cx="36" cy="36" r="23" fill="#fcea2b"/><path fill="#f1b31c" d="M54.695 22.61A23 23 0 0114.02 42.792 23.001 23.001 0 1054.695 22.61z"/><g fill="none" stroke="#000" stroke-miterlimit="10" stroke-width="2"><circle cx="36" cy="36" r="23"/><path stroke-linecap="round" d="M46.264 25.894L25.051 47.107m22.984-12.371L33.893 48.879m-6.791-13.863l-3.536 3.535m14.142-14.142l-7.071 7.071m-1.484-8.555l-7.071 7.071"/></g></svg>
